src/lib/packages/icons/src/assets/line/volume-high.svg

<svg width="24" height="24" viewBox="0 0 24 24" fill="none" xmlns="http://www.w3.org/2000/svg">
<path d="M11.323 21.7511C10.764 21.7511 10.215 21.5542 9.76501 21.1732L6.07397 18.046C5.84897 17.855 5.56199 17.7501 5.26599 17.7501H3.49902C2.25902 17.7501 1.24902 16.7411 1.24902 15.5001V8.50106C1.24902 7.26006 2.25902 6.25106 3.49902 6.25106H5.26599C5.56199 6.25106 5.84895 6.14617 6.07495 5.95517L9.76599 2.82797C10.494 2.21097 11.482 2.07809 12.347 2.47909C13.212 2.88009 13.749 3.72114 13.749 4.67514V19.328C13.749 20.282 13.212 21.123 12.347 21.524C12.018 21.676 11.669 21.7511 11.323 21.7511ZM3.5 7.75009C3.087 7.75009 2.75 8.08609 2.75 8.50009V15.4991C2.75 15.9131 3.087 16.2491 3.5 16.2491H5.26697C5.91697 16.2491 6.54795 16.48 7.04395 16.901L10.735 20.0282C11.014 20.2652 11.3819 20.317 11.7159 20.161C12.0499 20.006 12.249 19.694 12.249 19.326V4.67318C12.249 4.30518 12.0499 3.99298 11.7159 3.83798C11.3829 3.68298 11.015 3.73303 10.736 3.97103L7.04395 7.09799C6.54795 7.51799 5.91697 7.75009 5.26697 7.75009H3.5ZM16.767 16.7711C18.046 15.4981 18.75 13.8031 18.75 12.0001C18.75 10.1971 18.046 8.50209 16.767 7.22909C16.473 6.93709 15.9981 6.93704 15.7061 7.23104C15.4131 7.52404 15.415 8.00008 15.708 8.29208C16.702 9.28208 17.25 10.6001 17.25 12.0011C17.25 13.4021 16.702 14.72 15.708 15.71C15.415 16.002 15.4131 16.4771 15.7061 16.7711C15.8521 16.9181 16.0451 16.992 16.2371 16.992C16.4291 16.99 16.62 16.9171 16.767 16.7711ZM19.597 19.6012C21.63 17.5732 22.75 14.8731 22.75 12.0001C22.75 9.12709 21.63 6.42701 19.597 4.39901C19.303 4.10601 18.828 4.10699 18.536 4.39999C18.244 4.69299 18.244 5.16803 18.538 5.46103C20.287 7.20503 21.25 9.52709 21.25 12.0001C21.25 14.4731 20.287 16.7942 18.538 18.5392C18.244 18.8321 18.244 19.3072 18.536 19.6002C18.682 19.7472 18.875 19.8202 19.067 19.8202C19.259 19.8202 19.45 19.7472 19.597 19.6012Z" fill="currentColor"/>
</svg>

<svg xmlns="http://www.w3.org/2000/svg" width="24" height="24" fill="none"><path fill="currentColor" d="M11.323 21.751a2.403 2.403 0 0 1-1.558-.578l-3.691-3.127a1.25 1.25 0 0 0-.808-.296H3.499a2.253 2.253 0 0 1-2.25-2.25V8.501c0-1.24 1.01-2.25 2.25-2.25h1.767c.296 0 .583-.105.809-.296l3.691-3.127a2.394 2.394 0 0 1 2.581-.349 2.396 2.396 0 0 1 1.402 2.196v14.653c0 .954-.537 1.795-1.402 2.196a2.44 2.44 0 0 1-1.024.227Zm-7.823-14a.75.75 0 0 0-.75.75v6.998c0 .414.337.75.75.75h1.767c.65 0 1.28.231 1.777.652l3.691 3.127a.897.897 0 0 0 .98.133.9.9 0 0 0 .534-.835V4.673a.9.9 0 0 0-.533-.835.896.896 0 0 0-.98.133L7.044 7.098a2.754 2.754 0 0 1-1.777.652H3.5Zm13.267 9.02a6.687 6.687 0 0 0 1.983-4.77 6.687 6.687 0 0 0-1.983-4.772.75.75 0 1 0-1.059 1.063 5.202 5.202 0 0 1 1.542 3.71 5.202 5.202 0 0 1-1.542 3.708.75.75 0 1 0 1.059 1.061Zm2.83 2.83a10.666 10.666 0 0 0 3.153-7.6c0-2.874-1.12-5.574-3.153-7.602a.75.75 0 1 0-1.059 1.062 9.171 9.171 0 0 1 2.712 6.54 9.173 9.173 0 0 1-2.712 6.538.75.75 0 1 0 1.059 1.062Z"/></svg>
